X: 1
T: Hart's
M: 4/4
L: 1/8
R: hornpipe
K: Gmaj
GF|:G2g2 gddB|c2e2 e2fg|dBdB e2e2|AGAB GFED|
G2g2 gddB|c2e2e2 fg|dBdB cAGF|1G2B2 G2GF:|2G2B2 G2 FG||
|:BGBG G2 d2|ecec A2 e2|dBdB dBAG|FGAB A2G2|
BGBG G2d2|ecec A2e2|dBdB dBAF|1G2B2G2 FG:|2G2B2G2 GF||
|:GDBD GABG|AFDF AFcA|BGcA d2e2|dgdB B2A2|
GDBD GABG|AFDF AFcA|BGcA d2e2|dBAB G2GF:|
